packages/vibrant-icons/assets/icons/Flag/Fill.svg

<svg xmlns="http://www.w3.org/2000/svg" width="24" height="24" fill="none"><path fill="#0C0C0C" d="m18.5 8 3.45-5.65c.05-.05.05-.1.05-.1 0-.15-.1-.25-.25-.25H3.25C3.1 2 3 2.1 3 2.25v19.5c0 .15.1.25.25.25h2c.15 0 .25-.1.25-.25V14h16.25c.15 0 .25-.1.25-.25 0-.05 0-.1-.05-.1z"/></svg>

<svg width="24" height="24" viewBox="0 0 24 24" fill="none" xmlns="http://www.w3.org/2000/svg">
<path d="M18.5 8L21.95 2.35C22 2.3 22 2.25 22 2.25C22 2.1 21.9 2 21.75 2H5.25H3.25C3.1 2 3 2.1 3 2.25V13.75V21.75C3 21.9 3.1 22 3.25 22H5.25C5.4 22 5.5 21.9 5.5 21.75V14H21.75C21.9 14 22 13.9 22 13.75C22 13.7 22 13.65 21.95 13.65L18.5 8Z" fill="#0C0C0C"/>
</svg>
